X:10
T:Frustration Reel
R:Reel
M:2/4
L:1/8
N:David Margolin, transcribed by Bruce Thomson
K:E
||e2eg|fegf|efge|fecd|edeg|fegf|eg3|b4|
e2dg|fegf|efge|fecd|edeg|fece|Bc3|e4:|
|:B3c|=d2=d2|Bc=dB|cBA2|BABc|=dcBc|=dcB2|A4|
B3c|=d2=dc|Bc=dB|cBAc|BABc|=dcB2|Bc2c|e4:|
